**kern	**kern
*part1	*part1
*staff2	*staff1
*I"Piano	*
*clefF4	*clefG2
*k[b-e-a-]	*k[b-e-a-]
=1	=1
*^	*
4B-	4F	4dn 4f
4B-	4F	4d 4f
4E- 4F 4An	4FF	2ryy
4E- 4F 4A	4FF	.
=	=	=
4D 4F 4B-	4BB-	1ryy
4D 4F 4B-	4BB-	.
4D 4F 4B-	4BB-	.
4D 4F 4B-	4BB-	.
=	=	=
4An	4BB- 4E- 4G-X	1ryy
4A	4BB- 4E- 4G-	.
4A	4BB- 4E- 4G-	.
4A	4BB- 4E- 4G-	.
=	=	=
4D-X 4F 4B-	4BB-	1ryy
4D- 4F 4B-	4BB-	.
4D- 4F 4B-	4BB-	.
4D- 4F 4B-	4BB-	.
=	=	=
4An	4BB- 4E- 4G-X	1ryy
4A	4BB- 4E- 4G-	.
4A	4BB- 4E- 4G-	.
4A	4BB- 4E- 4G-	.
=	=	=
4D-X 4F 4B-	4BB-	1ryy
4D- 4F 4B-	4BB-	.
4Dn 4F 4B-	4BB-	.
4D 4F 4A- 4B-	4BB-	.
=	=	=
2G 2B-	2EE-: 2E-:	2e-
2A- 2B-	2DDn: 2Dn:	2f
*v	*v	*
=	=
*-	*-
!!!system-decoration: {(s1,s2)}
